X: 797
T: Fandui maimai huenyen
L: 1/8
M: 2/4
K: F
c d c d [I:setbarnb 1]| 
f dc2- | 
c2c d | 
c d B A | 
G4 | 
G A c A | 
c dc2 | 
E DC2 | 
c A G A | 
C D F G | 
E DC2- | 
C2z2 |]

@@@ Tune index: 9671
